svgs/light/hotel.svg

<svg xmlns="http://www.w3.org/2000/svg" viewBox="0 0 512 512"><!--! Font Awesome Pro 6.6.0 by @fontawesome - https://fontawesome.com License - https://fontawesome.com/license (Commercial License) Copyright 2024 Fonticons, Inc. --><path d="M16 0C7.2 0 0 7.2 0 16s7.2 16 16 16l16 0 0 448-16 0c-8.8 0-16 7.2-16 16s7.2 16 16 16l224 0 32 0 224 0c8.8 0 16-7.2 16-16s-7.2-16-16-16l-16 0 0-448 16 0c8.8 0 16-7.2 16-16s-7.2-16-16-16L16 0zM272 432l0 48-32 0 0-48c0-8.8 7.2-16 16-16s16 7.2 16 16zm32 0c0-26.5-21.5-48-48-48s-48 21.5-48 48l0 48L64 480 64 32l384 0 0 448-144 0 0-48zM320 96l0 32c0 17.7 14.3 32 32 32l32 0c17.7 0 32-14.3 32-32l0-32c0-17.7-14.3-32-32-32l-32 0c-17.7 0-32 14.3-32 32zm64 0l0 32-32 0 0-32 32 0zM240 64c-17.7 0-32 14.3-32 32l0 32c0 17.7 14.3 32 32 32l32 0c17.7 0 32-14.3 32-32l0-32c0-17.7-14.3-32-32-32l-32 0zm0 32l32 0 0 32-32 0 0-32zM208 224l0 32c0 17.7 14.3 32 32 32l32 0c17.7 0 32-14.3 32-32l0-32c0-17.7-14.3-32-32-32l-32 0c-17.7 0-32 14.3-32 32zm64 0l0 32-32 0 0-32 32 0zm80-32c-17.7 0-32 14.3-32 32l0 32c0 17.7 14.3 32 32 32l32 0c17.7 0 32-14.3 32-32l0-32c0-17.7-14.3-32-32-32l-32 0zm0 32l32 0 0 32-32 0 0-32zM96 96l0 32c0 17.7 14.3 32 32 32l32 0c17.7 0 32-14.3 32-32l0-32c0-17.7-14.3-32-32-32l-32 0c-17.7 0-32 14.3-32 32zm64 0l0 32-32 0 0-32 32 0zm-32 96c-17.7 0-32 14.3-32 32l0 32c0 17.7 14.3 32 32 32l32 0c17.7 0 32-14.3 32-32l0-32c0-17.7-14.3-32-32-32l-32 0zm0 32l32 0 0 32-32 0 0-32zm68.4 154.7C211 362.3 232.3 352 256 352s45 10.3 59.6 26.7c5.9 6.6 16 7.1 22.6 1.3s7.1-16 1.3-22.6C319 334.4 289.2 320 256 320s-63 14.4-83.5 37.3c-5.9 6.6-5.3 16.7 1.3 22.6s16.7 5.3 22.6-1.3z"/></svg>

<svg xmlns="http://www.w3.org/2000/svg" viewBox="0 0 512 512"><!--! Font Awesome Pro 6.4.0 by @fontawesome - https://fontawesome.com License - https://fontawesome.com/license (Commercial License) Copyright 2023 Fonticons, Inc. --><path d="M16 0C7.2 0 0 7.2 0 16s7.2 16 16 16H32V480H16c-8.8 0-16 7.2-16 16s7.2 16 16 16H240h32H496c8.8 0 16-7.2 16-16s-7.2-16-16-16H480V32h16c8.8 0 16-7.2 16-16s-7.2-16-16-16H16zM272 432v48H240V432c0-8.8 7.2-16 16-16s16 7.2 16 16zm32 0c0-26.5-21.5-48-48-48s-48 21.5-48 48v48H64V32H448V480H304V432zM320 96v32c0 17.7 14.3 32 32 32h32c17.7 0 32-14.3 32-32V96c0-17.7-14.3-32-32-32H352c-17.7 0-32 14.3-32 32zm64 0v32H352V96h32zM240 64c-17.7 0-32 14.3-32 32v32c0 17.7 14.3 32 32 32h32c17.7 0 32-14.3 32-32V96c0-17.7-14.3-32-32-32H240zm0 32h32v32H240V96zM208 224v32c0 17.7 14.3 32 32 32h32c17.7 0 32-14.3 32-32V224c0-17.7-14.3-32-32-32H240c-17.7 0-32 14.3-32 32zm64 0v32H240V224h32zm80-32c-17.7 0-32 14.3-32 32v32c0 17.7 14.3 32 32 32h32c17.7 0 32-14.3 32-32V224c0-17.7-14.3-32-32-32H352zm0 32h32v32H352V224zM96 96v32c0 17.7 14.3 32 32 32h32c17.7 0 32-14.3 32-32V96c0-17.7-14.3-32-32-32H128c-17.7 0-32 14.3-32 32zm64 0v32H128V96h32zm-32 96c-17.7 0-32 14.3-32 32v32c0 17.7 14.3 32 32 32h32c17.7 0 32-14.3 32-32V224c0-17.7-14.3-32-32-32H128zm0 32h32v32H128V224zm68.4 154.7C211 362.3 232.3 352 256 352s45 10.3 59.6 26.7c5.9 6.6 16 7.1 22.6 1.3s7.1-16 1.3-22.6C319 334.4 289.2 320 256 320s-63 14.4-83.5 37.3c-5.9 6.6-5.3 16.7 1.3 22.6s16.7 5.3 22.6-1.3z"/></svg>
